src/sources/forus-platform/resources/_platform-common/assets/img/menu/icon-financial_dashboard-hover.svg

<?xml version="1.0" encoding="utf-8"?>
<!DOCTYPE svg PUBLIC "-//W3C//DTD SVG 1.1//EN" "http://www.w3.org/Graphics/SVG/1.1/DTD/svg11.dtd">
<svg version="1.1" id="Layer_1" xmlns="http://www.w3.org/2000/svg" xmlns:xlink="http://www.w3.org/1999/xlink" x="0px" y="0px"
	 width="30px" height="30px" viewBox="-5 -6.5 30 30" enable-background="new -5 -6.5 30 30" xml:space="preserve">
<path fill="#2987FD" d="M10,0C7.3,0,4.8,1.1,2.9,3C1.1,4.9,0,7.5,0,10.2c0,2.399,0.8,4.6,2.3,6.5C2.4,16.9,2.7,17,2.9,17H17
	c0.2,0,0.5-0.1,0.6-0.3c1.5-1.8,2.301-4.101,2.301-6.5C20.1,4.6,15.6,0.1,10,0z M16.7,15.3H3.3c-0.9-1.2-1.5-2.7-1.6-4.2h2.5
	C4.6,11,5,10.7,5,10.2S4.6,9.3,4.2,9.3H1.7c0.2-1.7,0.8-3.2,1.8-4.5l0.6,0.6c0.3,0.3,0.8,0.3,1.2,0c0.3-0.3,0.3-0.9,0-1.2L4.7,3.6
	c1.3-1,2.8-1.7,4.5-1.9v2.5C9.2,4.7,9.5,5,10,5.1c0.5,0,0.8-0.3,0.9-0.8c0,0,0,0,0-0.1V1.7C12.5,1.9,14.1,2.5,15.3,3.6l-0.6,0.6
	c-0.3,0.3-0.3,0.9,0,1.2c0.3,0.3,0.8,0.3,1.2,0l0.6-0.6c1,1.3,1.7,2.9,1.8,4.5h-2.5c-0.5,0-0.899,0.4-0.899,0.9S15.3,11.1,15.8,11.1
	h2.5C18.1,12.6,17.6,14.1,16.7,15.3z"/>
<path fill="#004195" d="M10.1,11.899l2.4-4.8L7.8,9.5L10.1,11.899z"/>
</svg>

<svg width="30" height="30" viewBox="0 0 30 30" fill="none" xmlns="http://www.w3.org/2000/svg" transform="translate(5 6.5)"><path fill-rule="evenodd" clip-rule="evenodd" d="M10.0998 11.8996L12.4998 7.09961L7.7998 9.49961L10.0998 11.8996Z" fill="#2987FD"/><path fill-rule="evenodd" clip-rule="evenodd" d="M10 0V0C7.3 0 4.8 1.1 2.9 3V3V3C1.1 4.9 0 7.5 0 10.2V10.2C0 12.6 0.8 14.8 2.3 16.7C2.4 16.9 2.7 17 2.9 17H17C17.2 17 17.5 16.9 17.6 16.7C19.1 14.9 19.9 12.6 19.9 10.2C20.1 4.6 15.6 0.1 10 0V0ZM16.7 15.3H3.3C2.4 14.1 1.8 12.6 1.7 11.1H4.2C4.6 11 5 10.7 5 10.2C5 9.7 4.6 9.3 4.2 9.3H1.7C1.9 7.6 2.5 6.1 3.5 4.8L4.1 5.4C4.4 5.7 4.9 5.7 5.3 5.4V5.4C5.6 5.1 5.6 4.5 5.3 4.2L4.7 3.6C6 2.6 7.5 1.9 9.2 1.7V4.2C9.2 4.7 9.5 5 10 5.1C10.5 5.1 10.8 4.8 10.9 4.3C10.9 4.3 10.9 4.3 10.9 4.2V1.7C12.5 1.9 14.1 2.5 15.3 3.6L14.7 4.2C14.4 4.5 14.4 5.1 14.7 5.4C15 5.7 15.5 5.7 15.9 5.4V5.4L16.5 4.8C17.5 6.1 18.2 7.7 18.3 9.3H15.8C15.3 9.3 14.9 9.7 14.9 10.2C14.9 10.7 15.3 11.1 15.8 11.1H18.3C18.1 12.6 17.6 14.1 16.7 15.3Z" fill="#004195"/></svg>
